icons/circle/48/openage.svg

<svg version="1.1" viewBox="0 0 48 48" xmlns="http://www.w3.org/2000/svg">
 <defs>
  <linearGradient id="linearGradient3764" x1="1" x2="47" gradientTransform="matrix(0 -1 1 0 -1.5e-6 48)" gradientUnits="userSpaceOnUse">
   <stop style="stop-color:#333" offset="0"/>
   <stop style="stop-color:#3d3d3d" offset="1"/>
  </linearGradient>
 </defs>
 <path d="m36.31 5c5.859 4.062 9.688 10.831 9.688 18.5 0 12.426-10.07 22.5-22.5 22.5-7.669 0-14.438-3.828-18.5-9.688 1.037 1.822 2.306 3.499 3.781 4.969 4.085 3.712 9.514 5.969 15.469 5.969 12.703 0 23-10.298 23-23 0-5.954-2.256-11.384-5.969-15.469-1.469-1.475-3.147-2.744-4.969-3.781zm4.969 3.781c3.854 4.113 6.219 9.637 6.219 15.719 0 12.703-10.297 23-23 23-6.081 0-11.606-2.364-15.719-6.219 4.16 4.144 9.883 6.719 16.219 6.719 12.703 0 23-10.298 23-23 0-6.335-2.575-12.06-6.719-16.219z" style="opacity:.05"/>
 <path d="m41.28 8.781c3.712 4.085 5.969 9.514 5.969 15.469 0 12.703-10.297 23-23 23-5.954 0-11.384-2.256-15.469-5.969 4.113 3.854 9.637 6.219 15.719 6.219 12.703 0 23-10.298 23-23 0-6.081-2.364-11.606-6.219-15.719z" style="opacity:.1"/>
 <path d="m31.25 2.375c8.615 3.154 14.75 11.417 14.75 21.13 0 12.426-10.07 22.5-22.5 22.5-9.708 0-17.971-6.135-21.12-14.75a23 23 0 0 0 44.875 -7 23 23 0 0 0 -16 -21.875z" style="opacity:.2"/>
 <path d="m24 1c12.703 0 23 10.297 23 23s-10.297 23-23 23-23-10.297-23-23 10.297-23 23-23z" style="fill:url(#linearGradient3764)"/>
 <path d="m40.03 7.531c3.712 4.084 5.969 9.514 5.969 15.469 0 12.703-10.297 23-23 23-5.954 0-11.384-2.256-15.469-5.969 4.178 4.291 10.01 6.969 16.469 6.969 12.703 0 23-10.298 23-23 0-6.462-2.677-12.291-6.969-16.469z" style="opacity:.1"/>
 <path d="m15 13v12c0 2.6626 1.3801 4.8347 3.1758 6.3848l-3.1758 4.3691c2.9086 2.1044 6.409 3.246 10 3.2461s7.0914-1.1417 10-3.2461l-3.1758-4.3691c1.7957-1.55 3.1758-3.7222 3.1758-6.3848v-12h-4v4.8008c-0.80411-0.48682-1.6361-1.3467-4-1.668v-3.1328h-4v3.1328c-2.3639 0.3213-3.1959 1.1812-4 1.668v-4.8008zm10 7c2.6957 0 4.2857 0.5 6 1.5v4.5c0 2.5362-4 5-6 6-2-1-6-3.4638-6-6v-4.5c1.7143-1 3.3043-1.5 6-1.5z" style="opacity:.1"/>
 <path d="m14 12v12c0 2.6626 1.3801 4.8347 3.1758 6.3848l-3.1758 4.3691c2.9086 2.1044 6.409 3.246 10 3.2461s7.0914-1.1417 10-3.2461l-3.1758-4.3691c1.7957-1.55 3.1758-3.7222 3.1758-6.3848v-12h-4v4.8008c-0.80411-0.48682-1.6361-1.3467-4-1.668v-3.1328h-4v3.1328c-2.3639 0.3213-3.1959 1.1812-4 1.668v-4.8008zm10 7c2.6957 0 4.2857 0.5 6 1.5v4.5c0 2.5362-4 5-6 6-2-1-6-3.4638-6-6v-4.5c1.7143-1 3.3043-1.5 6-1.5z" style="fill:#f9f9f9"/>
</svg>

<svg viewBox="0 0 48 48" xmlns="http://www.w3.org/2000/svg">
  <defs>
    <linearGradient id="a" x1="1" x2="47" gradientTransform="rotate(-90 24 24)" gradientUnits="userSpaceOnUse">
      <stop offset="0" stop-color="#333"/>
      <stop offset="1" stop-color="#3d3d3d"/>
    </linearGradient>
  </defs>
  <path d="M36.31 5c5.859 4.062 9.688 10.831 9.688 18.5 0 12.426-10.07 22.5-22.5 22.5-7.669 0-14.438-3.828-18.5-9.688a23.24 23.24 0 0 0 3.781 4.969 22.923 22.923 0 0 0 15.469 5.969c12.703 0 23-10.298 23-23a22.92 22.92 0 0 0-5.969-15.469A23.216 23.216 0 0 0 36.31 5zm4.969 3.781A22.911 22.911 0 0 1 47.498 24.5c0 12.703-10.297 23-23 23a22.909 22.909 0 0 1-15.719-6.219C12.939 45.425 18.662 48 24.998 48c12.703 0 23-10.298 23-23 0-6.335-2.575-12.06-6.719-16.219z" opacity=".05"/>
  <path d="M41.28 8.781a22.923 22.923 0 0 1 5.969 15.469c0 12.703-10.297 23-23 23A22.92 22.92 0 0 1 8.78 41.281 22.911 22.911 0 0 0 24.499 47.5c12.703 0 23-10.298 23-23A22.909 22.909 0 0 0 41.28 8.781z" opacity=".1"/>
  <path d="M31.25 2.375C39.865 5.529 46 13.792 46 23.505c0 12.426-10.07 22.5-22.5 22.5-9.708 0-17.971-6.135-21.12-14.75a23 23 0 0 0 44.875-7 23 23 0 0 0-16-21.875z" opacity=".2"/>
  <path d="M24 1c12.703 0 23 10.297 23 23S36.703 47 24 47 1 36.703 1 24 11.297 1 24 1z" fill="url(#a)"/>
  <path d="M40.03 7.531A22.922 22.922 0 0 1 45.999 23c0 12.703-10.297 23-23 23A22.92 22.92 0 0 1 7.53 40.031C11.708 44.322 17.54 47 23.999 47c12.703 0 23-10.298 23-23 0-6.462-2.677-12.291-6.969-16.469z" opacity=".1"/>
  <path d="M15 13v12c0 2.663 1.38 4.835 3.176 6.385L15 35.754C17.909 37.858 21.409 39 25 39s7.091-1.142 10-3.246l-3.176-4.37C33.62 29.835 35 27.664 35 25V13h-4v4.8c-.804-.486-1.636-1.346-4-1.667V13h-4v3.133c-2.364.321-3.196 1.181-4 1.668V13zm10 7c2.696 0 4.286.5 6 1.5V26c0 2.536-4 5-6 6-2-1-6-3.464-6-6v-4.5c1.714-1 3.304-1.5 6-1.5z" opacity=".1"/>
  <path d="M14 12v12c0 2.663 1.38 4.835 3.176 6.385L14 34.754C16.909 36.858 20.409 38 24 38s7.091-1.142 10-3.246l-3.176-4.37C32.62 28.835 34 26.664 34 24V12h-4v4.8c-.804-.486-1.636-1.346-4-1.667V12h-4v3.133c-2.364.321-3.196 1.181-4 1.668V12zm10 7c2.696 0 4.286.5 6 1.5V25c0 2.536-4 5-6 6-2-1-6-3.464-6-6v-4.5c1.714-1 3.304-1.5 6-1.5z" fill="#f9f9f9"/>
</svg>
